X: 40
T:Lord Mayo
M:4/4
L:1/4
R:March
K:G
E |: AGAB | e2 e/2d/2B/2d/2 | eAA B/2A/2 | G/2A/2G/2F/2 E F/2G/2 |
| AGAB | e2 g3/2 f/2 | ed B/2d/2B/2G/2  | A3 :|
e |: a2 g/2e/2g/2a/2 | b2 b/2a/2 f | edd/2e/2g |1 G3/2 A/2 G e |
| a2 g/2e/ 2g/2a/2 | b2 b/2a/2 g | ed d/2e/2g/2e/2 | a3 e :|
|2 G3/2A/2GE | A/2G/2A/B/2 d B | A G g3/2 f/2 | e d B/2d/2B/2G/2 | A3 :|
